client/src/assets/images/icon-health-education-white.svg

<svg fill="none" height="92" viewBox="0 0 92 92" width="92" xmlns="http://www.w3.org/2000/svg"><g fill="#fff"><path d="m46.35 18c-15.6347 0-28.35 12.7153-28.35 28.35 0 15.6346 12.7153 28.35 28.35 28.35 15.6346 0 28.35-12.7154 28.35-28.35 0-15.6347-12.7154-28.35-28.35-28.35zm0 55.4025c-14.9211 0-27.0525-12.1315-27.0525-27.0525 0-14.9211 12.1314-27.0525 27.0525-27.0525 14.921 0 27.0525 12.1314 27.0525 27.0525 0 14.921-12.1315 27.0525-27.0525 27.0525z"/><path d="m46.35 20.582c-14.2074 0-25.768 11.5606-25.768 25.768s11.5606 25.768 25.768 25.768 25.768-11.5606 25.768-25.768-11.5606-25.768-25.768-25.768zm20.87 26.4168h3.5876c-.3439 12.884-10.9248 23.4649-23.8088 23.8088v-3.5876c0-.1816-.1428-.3244-.3244-.3244h-.6487c-.1817 0-.3244.1428-.3244.3244v3.5876c-12.884-.3439-23.465-10.9248-23.8088-23.8088h3.5875c.1817 0 .3244-.1428.3244-.3244v-.6487c0-.1817-.1427-.3244-.3244-.3244h-3.5875c.3438-12.884 10.9248-23.465 23.8088-23.8088v3.5875c0 .1817.1427.3244.3244.3244h.6487c.1816 0 .3244-.1427.3244-.3244v-3.5875c12.884.3438 23.4649 10.9248 23.8088 23.8088h-3.5876c-.1816 0-.3244.1427-.3244.3244v.6487c0 .1816.1428.3244.3244.3244z"/><path d="m49.5095 43.6252c.013-.0519.0195-.1038.0065-.1557-.0195-.0973-.0778-.1817-.1622-.2271l-.2335-.1232-.1622-.2076c-.0584-.0779-.1492-.1233-.2465-.1233-.0584-.0065-.1038.013-.1493.0324l-16.1082-8.6088c-.1362-.0713-.2984-.0389-.4022.0779-.0973.1168-.1038.2854-.0065.4087l11.1454 14.3761c-.013.0519-.0195.1038-.0065.1557.0194.0973.0778.1816.1622.2271l.2335.1232.1622.2076c.0584.0779.1492.1233.2465.1233.0454 0 .1038-.013.1492-.0325l16.1083 8.6153c.0454.026.1038.0389.1557.0389.0908 0 .1816-.0389.2465-.1167.0973-.1168.1038-.2855.0065-.4087zm-5.4754 4.4244-8.1741-10.5421 11.8071 6.3123zm.9926.8369 3.6394-4.2298 8.1742 10.542z"/></g></svg>

<svg width="92" height="92" viewBox="0 0 92 92" fill="none" xmlns="http://www.w3.org/2000/svg">
<path d="M46.35 18C30.7153 18 18 30.7153 18 46.35C18 61.9846 30.7153 74.7 46.35 74.7C61.9846 74.7 74.7 61.9846 74.7 46.35C74.7 30.7153 61.9846 18 46.35 18ZM46.35 73.4025C31.4289 73.4025 19.2975 61.271 19.2975 46.35C19.2975 31.4289 31.4289 19.2975 46.35 19.2975C61.271 19.2975 73.4025 31.4289 73.4025 46.35C73.4025 61.271 61.271 73.4025 46.35 73.4025Z" fill="white"/>
<path d="M46.35 20.582C32.1426 20.582 20.582 32.1426 20.582 46.35C20.582 60.5574 32.1426 72.118 46.35 72.118C60.5574 72.118 72.118 60.5574 72.118 46.35C72.118 32.1426 60.5574 20.582 46.35 20.582ZM67.22 46.9988H70.8076C70.4637 59.8828 59.8828 70.4637 46.9988 70.8076V67.22C46.9988 67.0384 46.856 66.8956 46.6744 66.8956H46.0257C45.844 66.8956 45.7013 67.0384 45.7013 67.22V70.8076C32.8173 70.4637 22.2363 59.8828 21.8925 46.9988H25.48C25.6617 46.9988 25.8044 46.856 25.8044 46.6744V46.0257C25.8044 45.844 25.6617 45.7013 25.48 45.7013H21.8925C22.2363 32.8173 32.8173 22.2363 45.7013 21.8925V25.48C45.7013 25.6617 45.844 25.8044 46.0257 25.8044H46.6744C46.856 25.8044 46.9988 25.6617 46.9988 25.48V21.8925C59.8828 22.2363 70.4637 32.8173 70.8076 45.7013H67.22C67.0384 45.7013 66.8956 45.844 66.8956 46.0257V46.6744C66.8956 46.856 67.0384 46.9988 67.22 46.9988Z" fill="white"/>
<path d="M49.5095 43.6252C49.5225 43.5733 49.529 43.5214 49.516 43.4695C49.4965 43.3722 49.4382 43.2878 49.3538 43.2424L49.1203 43.1192L48.9581 42.9116C48.8997 42.8337 48.8089 42.7883 48.7116 42.7883C48.6532 42.7818 48.6078 42.8013 48.5623 42.8207L32.4541 34.2119C32.3179 34.1406 32.1557 34.173 32.0519 34.2898C31.9546 34.4066 31.9481 34.5752 32.0454 34.6985L43.1908 49.0746C43.1778 49.1265 43.1713 49.1784 43.1843 49.2303C43.2037 49.3276 43.2621 49.4119 43.3465 49.4574L43.58 49.5806L43.7422 49.7882C43.8006 49.8661 43.8914 49.9115 43.9887 49.9115C44.0341 49.9115 44.0925 49.8985 44.1379 49.879L60.2462 58.4943C60.2916 58.5203 60.35 58.5332 60.4019 58.5332C60.4927 58.5332 60.5835 58.4943 60.6484 58.4165C60.7457 58.2997 60.7522 58.131 60.6549 58.0078L49.5095 43.6252ZM44.0341 48.0496L35.86 37.5075L47.6671 43.8198L44.0341 48.0496ZM45.0267 48.8865L48.6661 44.6567L56.8403 55.1987L45.0267 48.8865Z" fill="white"/>
</svg>
